X: 36478
T: Selkie At The Door
R: reel
M: 4/4
K: Edorian
Bd|:e2 ed e E2 (e|e)fed BEBc|d2 dc d D2 (d|d)edD BABd|
e2 ed e E2 (e|e)feE BABc|d2 de fe d2|dfeD BE ~E2:|
|:BE ~E2 Bc (d2|d)Fdc BAGA|FD ~D2 FGAd|fdef dFdc|
BE ~E2 Bc (d2|d)Fde fFfe|d2 cA BFdc|BFdc BE ~E2:|

